X:26
T:Reel 26
M:4/4
K:Gmaj
L:1/8
ge|d>G (3GGG dcBc|d>G (3GGG G2ge|d>G (3GGG dcBc| (3ABA =fd c2:|Bd|gabg e2dg|egdg egde|gaba gfed| (3efg dB AcBd|gaba gfdB|cABG AGeG|GABc  (3Bcd ge|dcBG A2Bd|GBAG G2BG|AGeG  (3BBA dB| (3ABA GA BGGB|ABAG e2dB|GBAG G2BG|dBBG c2BA|GBAG G2BGAG|A2GA BGdc|
